src/dsmComponents/Icons/location-pin-lost-16px.svg

<?xml version="1.0" encoding="UTF-8"?>
<svg width="14px" height="16px" viewBox="0 0 14 16" version="1.1" xmlns="http://www.w3.org/2000/svg" xmlns:xlink="http://www.w3.org/1999/xlink">
    <!-- Generator: Sketch 59.1 (86144) - https://sketch.com -->
    <title>location-pin-lost-16px</title>
    <desc>Created with Sketch.</desc>
    <defs>
        <path d="M0.458766067,2.14401383 C0.607931832,1.97336031 0.872648542,1.95110116 1.05052697,2.09477388 L1.05052697,2.09477388 L13.8500701,12.4392099 C14.0272482,12.5822081 14.0510587,12.8371766 13.9018929,13.0085046 L13.9018929,13.0085046 L13.5405336,13.4226598 C13.3920682,13.5933133 13.1273515,13.616247 12.949473,13.4725742 L12.949473,13.4725742 L11.3541697,12.1828923 C9.8674142,14.1437215 8.2840161,15.6917444 8.17406763,15.7976441 C8.03400588,15.932548 7.89394413,16 7.6838515,16 C7.47375887,16 7.33369712,15.932548 7.19363537,15.7976441 C6.98354274,15.5952881 1.3810727,10.1316776 1.3810727,6.5567225 C1.3810727,5.78237375 1.52253507,5.07480245 1.76414159,4.43198506 L1.76414159,4.43198506 L0.149929906,3.12813825 C-0.0272482093,2.98446553 -0.051058707,2.72949703 0.098107058,2.55884352 L0.098107058,2.55884352 Z M7.49668265,0 C10.6760822,0 14,2.43745071 14,6.45207542 C14,7.53100581 13.5324837,8.77123808 12.8597517,10 L12.8597517,10 L9.51271103,7.21413721 C9.6015897,6.97684422 9.6644551,6.72664707 9.6644551,6.45207542 C9.6644551,5.23335006 8.72508704,4.30138361 7.49668265,4.30138361 C7.08047034,4.30138361 6.70183275,4.41465338 6.37883466,4.60463116 L6.37883466,4.60463116 L3,1.79152627 C4.23418511,0.641623055 5.8795244,0 7.49668265,0 Z" id="path-1"></path>
    </defs>
    <g id="Final" stroke="none" stroke-width="1" fill="none" fill-rule="evenodd">
        <g id="All-Nucleo-Icons" transform="translate(-320.000000, -4380.000000)">
            <g id="Solo/Nucleo/16px/location-pin-lost" transform="translate(315.000000, 4376.000000)">
                <g id="location-lost" transform="translate(4.000000, 4.000000)">
                    <g id="Group-6" transform="translate(0.200000, 0.000000)">
                        <g id="Colour/Default-Colour" transform="translate(0.800000, 0.000000)">
                            <mask id="mask-2" fill="white">
                                <use xlink:href="#path-1"></use>
                            </mask>
                            <g id="Mask"></g>
                            <g id="colour/neutral/chia" mask="url(#mask-2)" fill="#737373">
                                <g transform="translate(-25.000000, -25.000000)" id="Colour">
                                    <rect x="0" y="0" width="64" height="64"></rect>
                                </g>
                            </g>
                        </g>
                    </g>
                </g>
            </g>
        </g>
    </g>
</svg>

<svg width="14" height="16" xmlns="http://www.w3.org/2000/svg" xmlns:xlink="http://www.w3.org/1999/xlink"><defs><path d="M.459 2.144a.432.432 0 01.592-.05l12.8 10.345a.394.394 0 01.05.57l-.36.414a.43.43 0 01-.592.05l-1.595-1.29a35.202 35.202 0 01-3.18 3.615.647.647 0 01-.49.202.647.647 0 01-.49-.202c-.21-.203-5.813-5.666-5.813-9.241 0-.775.142-1.482.383-2.125L.15 3.128a.394.394 0 01-.052-.57zM7.497 0C10.677 0 14 2.437 14 6.452c0 1.079-.468 2.32-1.14 3.548L9.513 7.214c.089-.237.151-.487.151-.762 0-1.219-.939-2.15-2.167-2.15a2.19 2.19 0 00-1.118.303L3 1.792C4.234.642 5.88 0 7.497 0z" id="location-pin-lost-16px_svg__a"/></defs><use fill="#737373" xlink:href="#location-pin-lost-16px_svg__a" fill-rule="evenodd"/></svg>
